X: 1
T: The Old Stack of Wheat
R: reel
M: 4/4
L: 1/8
K: Gmaj
BA |: GEDE G3 B | ~A2  GAB ded | ged BGAB d | d BAGE3 z |
| GGEDE GAB | G ~A2 GAB de | dged BGAB | GAG EF G2 A :|
|: edBd edgd | edBd e3 z | fg edB GAB |[1 ddBAG E2 d:|2 GAGEFG2 |]


